teams/dark/142.svg

<svg xmlns="http://www.w3.org/2000/svg" viewBox="0 0 300 300"><title>Minnesota Twins cap on dark logo</title><path fill="#fff" d="M179.68 238.29h7.26v1.6h-2.72v7.39h-1.83v-7.39h-2.71Zm16.39 0h3.16v8.99h-1.83v-7.15h-.04l-2.21 6.07-.4 1.08h-1.76l-2.53-7.15h-.04v7.15h-1.83v-8.99h3.17l2.09 5.87h.06l1.24-3.35Zm-42.75-8.62c5.03 0 9.91-.23 14.65-.66h.01c.54 12.61 3.64 24.7 8.04 37.54h-46.85c4.42-12.9 7.42-25.04 8.02-37.7h.01c5.13.55 10.49.82 16.11.82Zm-15.8-112.23-.09-33.18c0-8.93-.08-15.9-.18-21.94-28.39 1.54-55.13 10.57-78.96 26.41l6.04-37.8c24.8-8.79 56.43-13.12 88.19-13.12s63.52 4.33 88.32 13.12l6.04 37.8c-23.82-15.85-50.57-24.88-78.96-26.41-.09 6.04-.17 13-.17 21.94.01 2.65.02 5.32.02 8 .02 8.36.03 16.88.05 25.5.05 28.62.06 58.21.06 85.77-4.71.62-9.66.95-14.83.95-5.48 0-10.69-.36-15.6-1.04.15-27.51.13-57.04.07-85.6z"/><path fill="#d50032" d="M167.88 203.51c24.42-3.26 42.25-14.53 50.39-29.5l33.47.14c-8.42 28.21-39.44 50.76-83.77 54.85h-.01c-4.73.43-9.62.66-14.65.66-5.62 0-10.98-.27-16.11-.82h-.01c-29.56-3.14-51.46-15.32-72.59-36.45-8.8-8.79-18.91-20.6-30.98-31.76 12.08-11.16 22.18-22.97 30.98-31.76 21.19-21.2 43.16-33.39 72.85-36.48.03 8.21.05 16.58.07 25.04v.4c-15.73 2.13-28.45 7.49-37.36 14.59-9.45 7.47-15.35 17.32-15.35 28.21s5.9 20.73 15.35 28.22c8.9 7.09 21.59 12.44 37.29 14.58 4.91.68 10.12 1.04 15.6 1.04 5.18 0 10.12-.33 14.83-.95Zm-.06-85.75c-.01-8.62-.03-17.14-.05-25.5 44.43 4.04 75.54 26.6 83.97 54.87l-33.47.13c-8.15-14.98-26-26.26-50.45-29.5"/></svg>

<svg width="300" height="300" viewBox="0 0 300 300" fill="none" xmlns="http://www.w3.org/2000/svg">
<path d="M153.32 229.67C158.35 229.67 163.23 229.44 167.97 229.01H167.98C168.52 241.62 171.62 253.71 176.02 266.55H129.17C133.59 253.65 136.59 241.51 137.19 228.85H137.2C142.33 229.4 147.69 229.67 153.31 229.67H153.32ZM137.52 117.44L137.43 84.26C137.43 75.33 137.35 68.36 137.25 62.32C108.86 63.86 82.12 72.89 58.29 88.73L64.33 50.93C89.13 42.14 120.76 37.81 152.52 37.81C184.28 37.81 216.04 42.14 240.84 50.93L246.88 88.73C223.06 72.88 196.31 63.85 167.92 62.32C167.83 68.36 167.75 75.32 167.75 84.26C167.76 86.91 167.77 89.58 167.77 92.26C167.79 100.62 167.8 109.14 167.82 117.76C167.87 146.38 167.88 175.97 167.88 203.53C163.17 204.15 158.22 204.48 153.05 204.48C147.57 204.48 142.36 204.12 137.45 203.44C137.6 175.93 137.58 146.4 137.52 117.84V117.44Z" fill="white"/>
<path d="M167.88 203.51C192.3 200.25 210.13 188.98 218.27 174.01L251.74 174.15C243.32 202.36 212.3 224.91 167.97 229H167.96C163.23 229.43 158.34 229.66 153.31 229.66C147.69 229.66 142.33 229.39 137.2 228.84H137.19C107.63 225.7 85.73 213.52 64.6 192.39C55.8 183.6 45.69 171.79 33.62 160.63C45.7 149.47 55.8 137.66 64.6 128.87C85.79 107.67 107.76 95.48 137.45 92.39C137.48 100.6 137.5 108.97 137.52 117.43V117.83C121.79 119.96 109.07 125.32 100.16 132.42C90.71 139.89 84.81 149.74 84.81 160.63C84.81 171.52 90.71 181.36 100.16 188.85C109.06 195.94 121.75 201.29 137.45 203.43C142.36 204.11 147.57 204.47 153.05 204.47C158.23 204.47 163.17 204.14 167.88 203.52V203.51ZM167.82 117.76C167.81 109.14 167.79 100.62 167.77 92.26C212.2 96.3 243.31 118.86 251.74 147.13L218.27 147.26C210.12 132.28 192.27 121 167.82 117.76Z" fill="#D50032"/>
</svg>
